SuperCollider I
Sitzung 08
// --------------------------------

1) Lade eine beliebige Audiodatei in einen Buffer b.
2) Erstelle ein SynthDef mit PlayBuf zur Wiedergabe von b.
3) Steuere die Wiedergabegeschwindigkeit mit MouseX.kr (von 0.5 bis 2.0).
4) Steuere die Panorama-Position mit MouseY.kr (von -1 bis 1).
5) Spiele den Sound in Stereo ab, indem du zwei Synths mit unterschiedlicher Panorama-Position erstellst.
